X:1
T:Waiting for You and Me
T:Waiting for You and Me
T:William James Kirkpatrick
T:A. T. Gorham, 1886
T:Public Domain Courtesy of the Cyber Hymnal™
T:Public Domain Courtesy of the Cyber Hymnal™
C:William James Kirkpatrick
Z:Public Domain
Z:Courtesy of the Cyber Hymnal™
%%score ( 1 2 ) ( 3 4 )
L:1/8
Q:1/4=100
M:6/8
K:F
V:1 treble 
V:2 treble 
V:3 bass 
V:4 bass 
V:1
 F | [FA]2 [FA] (F[FA])[Fd] | [Fc]3 [FA]2 [FA] | [EG]2 [EG] [EG]2 [Ec] | [FA]3- [FA]2 F | %5
w: 1.~The|gol- den spires * are|gleam- ing Just|on the o- ther|side! * I|
w: 2.~The|fade- less flowers * are|bloom- ing, Just|on the o- ther|side, * And|
w: 3.~With|joy we soon * shall|ga- ther Just|on the o- ther|side, * While|
w: 4.~Yes,|wai- ting, ev- * er|wait- ing Just|on the o- ther|side— * Be-|
 [FA]2 [FA] ([CF][FA])[Fd] | [Fc]3 [FA]2 [FA] | [EG]2 [EG] [FA]2 [FG] | [EG]3- [EG]2 [EG] | %9
w: see the tur- * rets|glis- ten Hard|by the flow- ing|tide; * The|
w: down life’s shin- * ing|ri- ver The|crys- tal wa- ters|glide; * The|
w: end- less songs * of|tri- umph Come|float- ing o’er the|tide; * In|
w: yond the roll- * ing|ri- ver, A-|cross the surg- ing|tide; * Yes,|
 [EB]2 [EB] [EG]2 [EG] | [Fd]3 [Fc]2 [Fc] | [EB]2 [EB] [EG]2 [Ec] | [FA]3- [FA]2 [CG] | %13
w: pear- ly gates are|o- pen, The|high- way’s large and|free; * And|
w: sons of glo- ry|lin- ger Be-|neath each spread- ing|tree, * And|
w: E- den’s star lit|man- sions Our|home shall ev- er|be, * And|
w: wait- ing, ev- er|wait- ing Up-|on the jas- per|sea, * And|
 ([CF][FA])[Fc] [Af]2 [Fc] | (e2 d) [FB]2 [DG] | ([CF][FA])[Fd] [Ec]2 [CE] | [CF]3- [CF]2 z || %17
w: an- * gel bands are|wait- * ing To|wel- * come you and|me. *|
w: an- * gel bands are|wait- * ing To|wel- * come you and|me. *|
w: an- * gel bands are|wait- * ing To|wel- * come you and|me. *|
w: an- * gel bands are|wait- * ing To|wel- * come you and|me. *|
"^Refrain" [Fc]3 [FA]3 | [Fd]3 [Fc]3 | [EB][EB][EB] [EG]2 [Ec] | [FA]3- [FA]2 [CG] | %21
w: ||||
w: Wait- ing,|wait- ing,|Beau- ti- ful forms I|see; * The|
w: ||||
w: ||||
 ([CF][FA])[Fc] [Af]2 [Fc] | (e2 d) !fermata![FB]2 [DG] | ([CF][FA])[Fd] [Ec]2 [CE] | %24
w: |||
w: an- * gel bands are|wait- * ing, To|wel- * come you and|
w: |||
w: |||
 [CF]3- [CF]2 |] %25
w: |
w: me. *|
w: |
w: |
V:2
 F | x3 C2 x | x6 | x6 | x5 F | x6 | x6 | x6 | x6 | x6 | x6 | x6 | x6 | x6 | F3 x3 | x6 | x6 || %17
 x6 | x6 | x6 | x6 | x6 | F3 x3 | x6 | x5 |] %25
V:3
 [F,A,] | [F,C]2 [F,C] (A,C)[F,B,] | [F,A,]3 [F,C]2 [F,C] | [C,C]2 [C,C] [C,C]2 [C,C] | %4
w: ~|~ ~ ~ * ~|~ ~ ~|~ ~ ~ ~|
 [F,C]3- [F,C]2 [F,A,] | [F,C]2 [F,C] (A,C)[F,B,] | [F,A,]3 [F,C]2 [F,C] | %7
w: ~ * ~|~ ~ ~ * ~|~ ~ ~|
 [G,C]2 [G,C] [G,=B,]2 [G,B,] | [C,C]3- [C,C]2 [C,C] | [C,G,]2 [C,G,] [C,C]2 [C,C] | %10
w: ~ ~ ~ ~|~ * ~|~ ~ ~ ~|
 [F,B,]3 [F,A,]2 [F,A,] | [C,G,]2 [C,G,] [C,C]2 [C,C] | [F,C]3- [F,C]2 [F,B,] | %13
w: ~ ~ ~|~ ~ ~ ~|~ * ~|
 [F,A,]2 [F,A,] [F,C]2 [F,A,] | [B,,B,]3 [B,,D]2 [B,,B,] | [C,A,]2 [C,A,] [C,G,]2 [C,B,] | %16
w: ~ ~ ~ ~|~ ~ ~|~ ~ ~ ~|
 [F,A,]3- [F,A,]2 z || [F,A,][F,A,][F,A,] [F,C]3 | [F,B,][F,B,][F,B,] [F,A,]3 | %19
w: ~ *|Wait- ing for you,|wait- ing for me,|
 [G,C][G,C][G,C] [C,C]2 [C,C] | [F,C]3- [F,C]2 [F,B,] | [F,A,]2 [F,A,] [F,C]2 [F,A,] | %22
w: |||
 [B,,B,]3 !fermata![B,,D]2 [B,,B,] | [C,A,]2 [C,A,] [C,G,]2 [C,B,] | [F,,F,A,]3- [F,,F,A,]2 |] %25
w: |||
V:4
 x | x3 F,2 x | x6 | x6 | x6 | x3 F,2 x | x6 | x6 | x6 | x6 | x6 | x6 | x6 | x6 | x6 | x6 | x6 || %17
 x6 | x6 | x6 | x6 | x6 | x6 | x6 | x5 |] %25

